svg/white/apex.svg

<svg xmlns="http://www.w3.org/2000/svg" width="32" height="32" viewBox="0 0 32 32">
  <path fill="#FFF" fill-rule="evenodd" d="M16,32 C7.163444,32 0,24.836556 0,16 C0,7.163444 7.163444,0 16,0 C24.836556,0 32,7.163444 32,16 C32,24.836556 24.836556,32 16,32 Z M6,19.25 L6,23.5 L16,10.75 L26,23.5 L26,19.25 L16,6.5 L6,19.25 Z M16.5,20.5 C17.8807119,20.5 19,19.3807119 19,18 C19,16.6192881 17.8807119,15.5 16.5,15.5 C15.1192881,15.5 14,16.6192881 14,18 C14,19.3807119 15.1192881,20.5 16.5,20.5 Z"/>
</svg>

<svg height="32" viewBox="0 0 32 32" width="32" xmlns="http://www.w3.org/2000/svg"><path d="m16 32c-8.836556 0-16-7.163444-16-16s7.163444-16 16-16 16 7.163444 16 16-7.163444 16-16 16zm-10-12.75v4.25l10-12.75 10 12.75v-4.25l-10-12.75zm10.5 1.25c1.3807119 0 2.5-1.1192881 2.5-2.5s-1.1192881-2.5-2.5-2.5-2.5 1.1192881-2.5 2.5 1.1192881 2.5 2.5 2.5z" fill="#fff" fill-rule="evenodd"/></svg>
